X:8
T:Rosin Dubh
R:air
N:Paddy Keenan
I:abc2nwc
L:1/8
K:G
d6B d2|G6A3-A2G F/2G/2A/2B/2d/2f/2|a3-ab/2a/2g/2a/2 b3-b2a|
g12|a3-a3/2g/2e/2d/2 B3A3-A/2B/2A/2G/2A/2B/2|
c3B6A3|G12:|
|:f2g a b2c'6bag|b6a6|g3-g2e f d2-d3|e3-e2d Bdf|
a6-a/2b/2a/2g/2a/2b/2|c'3b6a2f|g12:|
age d3B3/2B/2A/2G/2|A6-A/2B/2A/2G/2A/2B/2|c3B6A3|G12|]
